src/components/topBar/bl_logo.svg

<?xml version="1.0" encoding="UTF-8" standalone="no"?>
<svg
   xmlns:dc="http://purl.org/dc/elements/1.1/"
   xmlns:cc="http://creativecommons.org/ns#"
   xmlns:rdf="http://www.w3.org/1999/02/22-rdf-syntax-ns#"
   xmlns:svg="http://www.w3.org/2000/svg"
   xmlns="http://www.w3.org/2000/svg"
   xmlns:xlink="http://www.w3.org/1999/xlink"
   xmlns:sodipodi="http://sodipodi.sourceforge.net/DTD/sodipodi-0.dtd"
   xmlns:inkscape="http://www.inkscape.org/namespaces/inkscape"
   width="629pt"
   height="640pt"
   viewBox="0 0 479 570"
   version="1.2"
   id="svg41"
   sodipodi:docname="bl_logo.svg"
   inkscape:version="1.0.2-2 (e86c870879, 2021-01-15)">
  <metadata
     id="metadata45">
    <rdf:RDF>
      <cc:Work
         rdf:about="">
        <dc:format>image/svg+xml</dc:format>
        <dc:type
           rdf:resource="http://purl.org/dc/dcmitype/StillImage" />
        <dc:title></dc:title>
      </cc:Work>
    </rdf:RDF>
  </metadata>
  <sodipodi:namedview
     pagecolor="#ffffff"
     bordercolor="#666666"
     borderopacity="1"
     objecttolerance="10"
     gridtolerance="10"
     guidetolerance="10"
     inkscape:pageopacity="0"
     inkscape:pageshadow="2"
     inkscape:window-width="1920"
     inkscape:window-height="1017"
     id="namedview43"
     showgrid="false"
     inkscape:zoom="1.3705718"
     inkscape:cx="411.73883"
     inkscape:cy="274.46381"
     inkscape:window-x="1912"
     inkscape:window-y="-8"
     inkscape:window-maximized="1"
     inkscape:current-layer="svg41"
     inkscape:document-rotation="0"
     showguides="false" />
  <defs
     id="defs24">
    <g
       id="g22">
      <symbol
         overflow="visible"
         id="glyph0-0">
        <path
           style="stroke:none"
           d=""
           id="path10" />
      </symbol>
      <symbol
         overflow="visible"
         id="glyph0-1">
        <path
           style="stroke:none"
           d="m -4.34375,5.78125 h 1.734375 V -201.54687 H -58.40625 c -6.164063,0 -11.992188,1.25781 -17.484375,3.76562 -5.5,2.5 -9.789063,6.26172 -12.875,11.28125 l -20.250005,19.95313 -0.57812,0.28125 c -2.5,2.51171 -4.47266,5.45312 -5.92188,8.82812 -1.44531,3.36719 -2.17187,7.16797 -2.17187,11.40625 v 45.98437 c 0,9.062505 3.18359,16.292974 9.54687,21.687505 l -0.875,0.578125 c -5.78125,5.59375 -8.67187,12.632812 -8.67187,21.109375 l 0.29687,60.4375 c 0,3.851563 0.91797,7.367188 2.75,10.546875 1.82422,3.175781 4.13672,5.921875 6.9375,8.234375 2.79297,2.320313 5.92188,4.15625 9.39063,5.5 3.46875,1.351563 6.9375,2.03125 10.40625,2.03125 h 58.703125 z m -53.203125,-43.953125 c 0,2.511719 0.871094,4.636719 2.609375,6.375 1.730469,1.730469 3.851562,2.59375 6.359375,2.59375 H -37.875 v -59.5625 h -10.703125 c -2.507813,0 -4.628906,0.820312 -6.359375,2.453125 -1.738281,1.636719 -2.609375,3.710937 -2.609375,6.21875 z M -62.171875,0 c -2.882813,0 -5.773438,-0.53125 -8.671875,-1.59375 -2.894531,-1.0625 -5.5,-2.554688 -7.8125,-4.484375 -2.3125,-1.925781 -4.238281,-4.1875 -5.78125,-6.78125 -1.539063,-2.601563 -2.3125,-5.445313 -2.3125,-8.53125 l -0.28125,-60.4375 c 0,-4.4375 1.203125,-8.628906 3.609375,-12.578125 2.40625,-3.957031 5.539062,-6.99219 9.390625,-9.10938 -3.851563,-2.125 -6.984375,-5.16015 -9.390625,-9.10937 -2.40625,-3.94531 -3.609375,-8.14063 -3.609375,-12.57813 v -45.98437 c 0,-4.03906 0.820312,-7.60156 2.453125,-10.6875 1.636719,-3.08203 3.757812,-5.63281 6.359375,-7.65625 2.605469,-2.03125 5.640625,-3.57812 9.109375,-4.64062 3.46875,-1.0625 7.039062,-1.59375 10.703125,-1.59375 H -8.390625 V 0 Z m 24,-118.54688 v -47.71874 H -47.125 c -2.707031,0 -5.117188,0.72656 -7.234375,2.17187 -2.125,1.44922 -3.1875,3.61719 -3.1875,6.5 v 30.35937 c 0,1.92969 0.679687,3.85938 2.03125,5.79688 1.34375,1.92969 3.078125,2.89062 5.203125,2.89062 z m 0,0"
           id="path13" />
      </symbol>
      <symbol
         overflow="visible"
         id="glyph1-0">
        <path
           style="stroke:none"
           d=""
           id="path16" />
      </symbol>
      <symbol
         overflow="visible"
         id="glyph1-1">
        <path
           style="stroke:none"
           d="M 4.609375,6.4375 H 2.765625 V -224.17187 H 46.03125 v 1.92187 l 26.390625,27.03125 v 156.296875 h 7.0625 v 1.9375 L 105.85938,-9.96875 V 33.453125 H 31 Z m 35.28125,-38.921875 V -217.73437 H 8.90625 V 0 h 64.4375 v -32.484375 z m 0,0"
           id="path19" />
      </symbol>
    </g>
  </defs>
  <g
     id="surface24217"
     transform="translate(-75.945313,-38.1875)">
    <path
       style="fill:#eec71e;fill-opacity:1;fill-rule:nonzero;stroke:none"
       d="M 564.05469,460.90625 320,601.8125 75.945313,460.90625 V 179.09375 L 320,38.1875 564.05469,179.09375 Z m 0,0"
       id="path26" />
    <path
       style="fill:#dcb311;fill-opacity:1;fill-rule:nonzero;stroke:none"
       d="m 320,38.1875 244.05469,140.90625 v 281.8125 L 320,601.8125"
       id="path28" />
    <g
       style="fill:#ffffff;fill-opacity:1"
       id="g32">
      <use
         xlink:href="#glyph0-1"
         x="323.0654"
         y="335.3999"
         id="use30"
         width="100%"
         height="100%" />
    </g>
    <g
       style="fill:#ffffff;fill-opacity:1"
       id="g36">
      <use
         xlink:href="#glyph1-1"
         x="312.59329"
         y="436.05179"
         id="use34"
         width="100%"
         height="100%" />
    </g>
    <path
       style="fill:#ffffff;fill-opacity:1;fill-rule:nonzero;stroke:none"
       d="m 368.82031,333.0625 h -6.17578 v -26.21484 h 6.17578 z m 0,0"
       id="path38" />
  </g>
</svg>

<?xml version="1.0" encoding="UTF-8" standalone="no"?>
<svg
   xmlns:dc="http://purl.org/dc/elements/1.1/"
   xmlns:cc="http://creativecommons.org/ns#"
   xmlns:rdf="http://www.w3.org/1999/02/22-rdf-syntax-ns#"
   xmlns:svg="http://www.w3.org/2000/svg"
   xmlns="http://www.w3.org/2000/svg"
   xmlns:xlink="http://www.w3.org/1999/xlink"
   xmlns:sodipodi="http://sodipodi.sourceforge.net/DTD/sodipodi-0.dtd"
   xmlns:inkscape="http://www.inkscape.org/namespaces/inkscape"
   width="640pt"
   height="640pt"
   viewBox="0 0 640 640"
   version="1.2"
   id="svg41"
   sodipodi:docname="Logo.svg"
   inkscape:version="1.0.2-2 (e86c870879, 2021-01-15)">
  <metadata
     id="metadata45">
    <rdf:RDF>
      <cc:Work
         rdf:about="">
        <dc:format>image/svg+xml</dc:format>
        <dc:type
           rdf:resource="http://purl.org/dc/dcmitype/StillImage" />
        <dc:title></dc:title>
      </cc:Work>
    </rdf:RDF>
  </metadata>
  <sodipodi:namedview
     pagecolor="#ffffff"
     bordercolor="#666666"
     borderopacity="1"
     objecttolerance="10"
     gridtolerance="10"
     guidetolerance="10"
     inkscape:pageopacity="0"
     inkscape:pageshadow="2"
     inkscape:window-width="1920"
     inkscape:window-height="1017"
     id="namedview43"
     showgrid="false"
     inkscape:zoom="0.99609375"
     inkscape:cx="426.66667"
     inkscape:cy="426.66667"
     inkscape:window-x="1912"
     inkscape:window-y="-8"
     inkscape:window-maximized="1"
     inkscape:current-layer="svg41" />
  <defs
     id="defs24">
    <g
       id="g22">
      <symbol
         overflow="visible"
         id="glyph0-0">
        <path
           style="stroke:none;"
           d=""
           id="path10" />
      </symbol>
      <symbol
         overflow="visible"
         id="glyph0-1">
        <path
           style="stroke:none;"
           d="M -4.34375 5.78125 L -2.609375 5.78125 L -2.609375 -201.546875 L -58.40625 -201.546875 C -64.570313 -201.546875 -70.398438 -200.289063 -75.890625 -197.78125 C -81.390625 -195.28125 -85.679688 -191.519531 -88.765625 -186.5 L -109.015625 -166.546875 L -109.59375 -166.265625 C -112.09375 -163.753906 -114.066406 -160.8125 -115.515625 -157.4375 C -116.960938 -154.070313 -117.6875 -150.269531 -117.6875 -146.03125 L -117.6875 -100.046875 C -117.6875 -90.984375 -114.503906 -83.753906 -108.140625 -78.359375 L -109.015625 -77.78125 C -114.796875 -72.1875 -117.6875 -65.148438 -117.6875 -56.671875 L -117.390625 3.765625 C -117.390625 7.617188 -116.472656 11.132813 -114.640625 14.3125 C -112.816406 17.488281 -110.503906 20.234375 -107.703125 22.546875 C -104.910156 24.867188 -101.78125 26.703125 -98.3125 28.046875 C -94.84375 29.398438 -91.375 30.078125 -87.90625 30.078125 L -29.203125 30.078125 Z M -57.546875 -38.171875 C -57.546875 -35.660156 -56.675781 -33.535156 -54.9375 -31.796875 C -53.207031 -30.066406 -51.085938 -29.203125 -48.578125 -29.203125 L -37.875 -29.203125 L -37.875 -88.765625 L -48.578125 -88.765625 C -51.085938 -88.765625 -53.207031 -87.945313 -54.9375 -86.3125 C -56.675781 -84.675781 -57.546875 -82.601563 -57.546875 -80.09375 Z M -62.171875 0 C -65.054688 0 -67.945313 -0.53125 -70.84375 -1.59375 C -73.738281 -2.65625 -76.34375 -4.148438 -78.65625 -6.078125 C -80.96875 -8.003906 -82.894531 -10.265625 -84.4375 -12.859375 C -85.976563 -15.460938 -86.75 -18.304688 -86.75 -21.390625 L -87.03125 -81.828125 C -87.03125 -86.265625 -85.828125 -90.457031 -83.421875 -94.40625 C -81.015625 -98.363281 -77.882813 -101.398438 -74.03125 -103.515625 C -77.882813 -105.640625 -81.015625 -108.675781 -83.421875 -112.625 C -85.828125 -116.570313 -87.03125 -120.765625 -87.03125 -125.203125 L -87.03125 -171.1875 C -87.03125 -175.226563 -86.210938 -178.789063 -84.578125 -181.875 C -82.941406 -184.957031 -80.820313 -187.507813 -78.21875 -189.53125 C -75.613281 -191.5625 -72.578125 -193.109375 -69.109375 -194.171875 C -65.640625 -195.234375 -62.070313 -195.765625 -58.40625 -195.765625 L -8.390625 -195.765625 L -8.390625 0 Z M -38.171875 -118.546875 L -38.171875 -166.265625 L -47.125 -166.265625 C -49.832031 -166.265625 -52.242188 -165.539063 -54.359375 -164.09375 C -56.484375 -162.644531 -57.546875 -160.476563 -57.546875 -157.59375 L -57.546875 -127.234375 C -57.546875 -125.304688 -56.867188 -123.375 -55.515625 -121.4375 C -54.171875 -119.507813 -52.4375 -118.546875 -50.3125 -118.546875 Z M -38.171875 -118.546875 "
           id="path13" />
      </symbol>
      <symbol
         overflow="visible"
         id="glyph1-0">
        <path
           style="stroke:none;"
           d=""
           id="path16" />
      </symbol>
      <symbol
         overflow="visible"
         id="glyph1-1">
        <path
           style="stroke:none;"
           d="M 4.609375 6.4375 L 2.765625 6.4375 L 2.765625 -224.171875 L 46.03125 -224.171875 L 46.03125 -222.25 L 72.421875 -195.21875 L 72.421875 -38.921875 L 79.484375 -38.921875 L 79.484375 -36.984375 L 105.859375 -9.96875 L 105.859375 33.453125 L 31 33.453125 Z M 39.890625 -32.484375 L 39.890625 -217.734375 L 8.90625 -217.734375 L 8.90625 0 L 73.34375 0 L 73.34375 -32.484375 Z M 39.890625 -32.484375 "
           id="path19" />
      </symbol>
    </g>
  </defs>
  <g
     id="surface24217"
     transform="translate(0.75294119,-1.5058824)">
    <path
       style="fill:#eec71e;fill-opacity:1;fill-rule:nonzero;stroke:none"
       d="M 564.05469,460.90625 320,601.8125 75.945313,460.90625 V 179.09375 L 320,38.1875 564.05469,179.09375 Z m 0,0"
       id="path26" />
    <path
       style="fill:#dcb311;fill-opacity:1;fill-rule:nonzero;stroke:none"
       d="m 320,38.1875 244.05469,140.90625 v 281.8125 L 320,601.8125"
       id="path28" />
    <g
       style="fill:#ffffff;fill-opacity:1"
       id="g32">
      <use
         xlink:href="#glyph0-1"
         x="323.0654"
         y="335.3999"
         id="use30"
         width="100%"
         height="100%" />
    </g>
    <g
       style="fill:#ffffff;fill-opacity:1"
       id="g36">
      <use
         xlink:href="#glyph1-1"
         x="312.59329"
         y="436.05179"
         id="use34"
         width="100%"
         height="100%" />
    </g>
    <path
       style="fill:#ffffff;fill-opacity:1;fill-rule:nonzero;stroke:none"
       d="m 368.82031,333.0625 h -6.17578 v -26.21484 h 6.17578 z m 0,0"
       id="path38" />
  </g>
</svg>
